X:2535
T:Over The Hills and Far Away
C:anon.
O:England
A:Everywhere
S:as played by John Adams
F:http://abc.musicaviva.com/tunes/england/over-the-hills-far-away/over-the-hills-far-away.abc
%Posted at abcusers Jan 2nd 2001 by Johnny Adams.
M:4/4
L:1/8
K:G
GABA GABA | G2E2E2D2 | GABA GABG | c2 A2 A3 A | GABA GABA | G2E2 c4     |
E2 D2 DEGA |1 B2A2A3 D:|2 B2A2A2Bc|:d2dc B2 AB | G2 E2 E2 D2 | d2dc B2AG |
c2A2A2 Bc | d2 dc B2 AB | G2E2c4 | E2 D2 DEGA |1 B2A2A2 Bc :|2 B2 A2 A4|]
W:
W:
W:  From Musica Viva - http://www.musicaviva.com
W:  the Internet center for free sheet music downloads.
